brandFactory_export/3.Masa/Flecha arriba abajo_3Masa.svg

<?xml version="1.0" encoding="UTF-8"?>
<svg width="24px" height="24px" viewBox="0 0 24 24" version="1.1" xmlns="http://www.w3.org/2000/svg" xmlns:xlink="http://www.w3.org/1999/xlink">
    <title>3.Masa/Flecha arriba abajo_3Masa</title>
    <g id="Symbols" stroke="none" stroke-width="1" fill="none" fill-rule="evenodd">
        <g id="3.Masa/Flecha-arriba-abajo_3Masa" fill="#5CB615" fill-rule="nonzero">
            <path d="M15.7848739,23.6907563 C15.5260504,23.6907563 15.2806723,23.5798319 15.1092437,23.3848739 L10.1176471,18.3294118 C10.1042017,18.312605 10.087395,18.2991597 10.0739496,18.2823529 C9.84537815,18 9.79831933,17.6134454 9.95630252,17.2840336 C10.1042017,16.9647059 10.4235294,16.7596639 10.7764706,16.7596639 L12.9647059,16.7428571 L12.9579832,13.2605042 C12.9579832,12.4638655 13.6033613,11.8184874 14.4,11.8151261 L17.1831933,11.8151261 C17.9798319,11.8151261 18.6252101,12.4605042 18.6252101,13.2571429 L18.6285714,16.7428571 L20.8201681,16.7596639 C21.1731092,16.7596639 21.492437,16.9647059 21.6403361,17.2840336 C21.794958,17.6134454 21.7512605,18 21.5226891,18.2823529 C21.5092437,18.2991597 21.4957983,18.3159664 21.4789916,18.3294118 L16.4605042,23.3882353 C16.2890756,23.5798319 16.0436975,23.6907563 15.7848739,23.6907563 Z M9.33109244,11.8890756 L6.5512605,11.8890756 C5.75462185,11.8890756 5.1092437,11.2436975 5.1092437,10.4470588 L5.10588235,6.96470588 L2.91764706,6.94789916 C2.56470588,6.94789916 2.2487395,6.74285714 2.10084034,6.42352941 C1.94621849,6.09411765 1.99327731,5.70756303 2.22184874,5.42521008 C2.23529412,5.40840336 2.2487395,5.39159664 2.26554622,5.37815126 L7.27394958,0.329411765 C7.44537815,0.137815126 7.6907563,0.0268907563 7.94957983,0.0268907563 C8.20840336,0.0268907563 8.45378151,0.137815126 8.62521008,0.329411765 L13.610084,5.38151261 C13.6235294,5.39831933 13.6403361,5.41176471 13.6537815,5.42857143 C13.8823529,5.71092437 13.9294118,6.09747899 13.7714286,6.42352941 C13.6236187,6.74324291 13.3034884,6.94791635 12.9512605,6.94789916 L10.7663866,6.96470588 L10.7697479,10.4470588 C10.7731092,11.2436975 10.1277311,11.8890756 9.33109244,11.8890756 Z" id="Flecha-arriba-abajo_3Masa"></path>
        </g>
    </g>
</svg>

<svg width="24" height="24" viewBox="0 0 24 24" xmlns="http://www.w3.org/2000/svg"><path d="M15.785 23.69a.898.898 0 01-.676-.305l-4.991-5.056c-.014-.016-.03-.03-.044-.047a.938.938 0 01-.118-.998.904.904 0 01.82-.524l2.189-.017-.007-3.482c0-.797.645-1.443 1.442-1.446h2.783c.797 0 1.442.646 1.442 1.442l.004 3.486 2.191.017c.353 0 .672.205.82.524a.945.945 0 01-.161 1.045l-5.018 5.06a.907.907 0 01-.676.302zM9.33 11.89h-2.78a1.442 1.442 0 01-1.442-1.443l-.003-3.482-2.188-.017a.899.899 0 01-.817-.524.946.946 0 01.165-1.046L7.274.33a.907.907 0 011.351 0l4.985 5.053c.014.016.03.03.044.047a.933.933 0 01.117.995.904.904 0 01-.82.524l-2.185.017.004 3.482A1.437 1.437 0 019.33 11.89z" fill="#5CB615" fill-rule="nonzero"/></svg>
